templates/flag_icons/rs.svg

<?xml version="1.0" encoding="UTF-8" standalone="no"?>
<svg width="23px" height="17px" viewBox="0 0 23 17" version="1.1" xmlns="http://www.w3.org/2000/svg" xmlns:xlink="http://www.w3.org/1999/xlink">
    <!-- Generator: Sketch 3.7.2 (28276) - http://www.bohemiancoding.com/sketch -->
    <title>RS</title>
    <desc>Created with Sketch.</desc>
    <defs>
        <linearGradient x1="50%" y1="0%" x2="50%" y2="100%" id="linearGradient-1">
            <stop stop-color="#FFFFFF" offset="0%"></stop>
            <stop stop-color="#F0F0F0" offset="100%"></stop>
        </linearGradient>
        <rect id="path-2" x="0" y="0" width="21" height="15" rx="1.5"></rect>
        <filter x="-50%" y="-50%" width="200%" height="200%" filterUnits="objectBoundingBox" id="filter-4">
            <feOffset dx="0" dy="0.5" in="SourceAlpha" result="shadowOffsetOuter1"></feOffset>
            <feGaussianBlur stdDeviation="0.5" in="shadowOffsetOuter1" result="shadowBlurOuter1"></feGaussianBlur>
            <feColorMatrix values="0 0 0 0 0   0 0 0 0 0   0 0 0 0 0  0 0 0 0.16 0" type="matrix" in="shadowBlurOuter1"></feColorMatrix>
        </filter>
        <linearGradient x1="50%" y1="0%" x2="50%" y2="100%" id="linearGradient-5">
            <stop stop-color="#16508F" offset="0%"></stop>
            <stop stop-color="#114175" offset="100%"></stop>
        </linearGradient>
        <rect id="path-6" x="0" y="5" width="21" height="5"></rect>
        <filter x="-50%" y="-50%" width="200%" height="200%" filterUnits="objectBoundingBox" id="filter-7">
            <feMorphology radius="0.25" operator="dilate" in="SourceAlpha" result="shadowSpreadOuter1"></feMorphology>
            <feOffset dx="0" dy="0" in="shadowSpreadOuter1" result="shadowOffsetOuter1"></feOffset>
            <feColorMatrix values="0 0 0 0 0   0 0 0 0 0   0 0 0 0 0  0 0 0 0.06 0" type="matrix" in="shadowOffsetOuter1"></feColorMatrix>
        </filter>
        <linearGradient x1="50%" y1="0%" x2="50%" y2="100%" id="linearGradient-8">
            <stop stop-color="#E1444D" offset="0%"></stop>
            <stop stop-color="#C53840" offset="100%"></stop>
        </linearGradient>
        <rect id="path-9" x="0" y="0" width="21" height="5"></rect>
        <filter x="-50%" y="-50%" width="200%" height="200%" filterUnits="objectBoundingBox" id="filter-10">
            <feMorphology radius="0.25" operator="dilate" in="SourceAlpha" result="shadowSpreadOuter1"></feMorphology>
            <feOffset dx="0" dy="0" in="shadowSpreadOuter1" result="shadowOffsetOuter1"></feOffset>
            <feColorMatrix values="0 0 0 0 0   0 0 0 0 0   0 0 0 0 0  0 0 0 0.06 0" type="matrix" in="shadowOffsetOuter1"></feColorMatrix>
        </filter>
        <rect id="path-11" x="0" y="10" width="21" height="5"></rect>
        <filter x="-50%" y="-50%" width="200%" height="200%" filterUnits="objectBoundingBox" id="filter-12">
            <feMorphology radius="0.25" operator="dilate" in="SourceAlpha" result="shadowSpreadOuter1"></feMorphology>
            <feOffset dx="0" dy="0" in="shadowSpreadOuter1" result="shadowOffsetOuter1"></feOffset>
            <feColorMatrix values="0 0 0 0 0   0 0 0 0 0   0 0 0 0 0  0 0 0 0.06 0" type="matrix" in="shadowOffsetOuter1"></feColorMatrix>
        </filter>
        <path d="M0.5,2.5 C0.5,1.82617791 0.873828888,0.484626524 0.873828888,0.484626524 C0.943511269,0.216974685 1.2157526,0 1.49538898,0 L3.50461102,0 C3.7782068,0 4.05735636,0.214117162 4.12617111,0.481138541 C4.12617111,0.481138541 4.5,1.81010532 4.5,2.5 C4.5,3.1449728 4.12359554,4.51947242 4.12359554,4.51947242 C4.05533561,4.78486047 3.85530376,5.17418671 3.66748512,5.37236309 C3.66748512,5.37236309 3.25,6 2.5,6 C1.75,6 1.33251488,5.37236309 1.33251488,5.37236309 C1.14887198,5.16671263 0.942643642,4.78284423 0.873828888,4.51260075 C0.873828888,4.51260075 0.5,3.16104539 0.5,2.5 Z" id="path-13"></path>
        <filter x="-50%" y="-50%" width="200%" height="200%" filterUnits="objectBoundingBox" id="filter-15">
            <feMorphology radius="0.25" operator="dilate" in="SourceAlpha" result="shadowSpreadOuter1"></feMorphology>
            <feOffset dx="0" dy="0" in="shadowSpreadOuter1" result="shadowOffsetOuter1"></feOffset>
            <feColorMatrix values="0 0 0 0 0   0 0 0 0 0   0 0 0 0 0  0 0 0 0.06 0" type="matrix" in="shadowOffsetOuter1"></feColorMatrix>
        </filter>
    </defs>
    <g id="Flag-Kit" stroke="none" stroke-width="1" fill="none" fill-rule="evenodd">
        <g id="RS">
            <g id="AE-Copy-6" transform="translate(1.000000, 1.000000)">
                <mask id="mask-3" fill="white">
                    <use xlink:href="#path-2"></use>
                </mask>
                <g id="Mask">
                    <use fill="black" fill-opacity="1" filter="url(#filter-4)" xlink:href="#path-2"></use>
                    <use fill="url(#linearGradient-1)" fill-rule="evenodd" xlink:href="#path-2"></use>
                </g>
                <g id="Rectangle-2" mask="url(#mask-3)">
                    <use fill="black" fill-opacity="1" filter="url(#filter-7)" xlink:href="#path-6"></use>
                    <use fill="url(#linearGradient-5)" fill-rule="evenodd" xlink:href="#path-6"></use>
                </g>
                <g id="Rectangle-2" mask="url(#mask-3)">
                    <use fill="black" fill-opacity="1" filter="url(#filter-10)" xlink:href="#path-9"></use>
                    <use fill="url(#linearGradient-8)" fill-rule="evenodd" xlink:href="#path-9"></use>
                </g>
                <g id="Rectangle-2" mask="url(#mask-3)">
                    <use fill="black" fill-opacity="1" filter="url(#filter-12)" xlink:href="#path-11"></use>
                    <use fill="url(#linearGradient-1)" fill-rule="evenodd" xlink:href="#path-11"></use>
                </g>
                <g id="Rectangle-1668" mask="url(#mask-3)">
                    <g transform="translate(4.000000, 5.000000)">
                        <mask id="mask-14" fill="white">
                            <use xlink:href="#path-13"></use>
                        </mask>
                        <g id="Mask" stroke="none" fill="none">
                            <use fill="black" fill-opacity="1" filter="url(#filter-15)" xlink:href="#path-13"></use>
                            <use fill="url(#linearGradient-1)" fill-rule="evenodd" xlink:href="#path-13"></use>
                        </g>
                        <path d="M4.5,0.5 L0.5,5.5" id="Line" stroke="#C43840" stroke-width="1" stroke-linecap="square" fill="none" mask="url(#mask-14)"></path>
                        <path d="M4.5,0.5 L0.5,5.5" id="Line" stroke="#C43840" stroke-width="1" stroke-linecap="square" fill="none" mask="url(#mask-14)" transform="translate(2.500000, 3.000000) scale(-1, 1) translate(-2.500000, -3.000000) "></path>
                    </g>
                </g>
                <rect id="Depth" mask="url(#mask-3)" x="0" y="0" width="21" height="15" rx="1.5"></rect>
            </g>
            <ellipse id="Oval-214" fill="#FFFFFF" cx="7.5" cy="8.5" rx="0.5" ry="1.5"></ellipse>
            <path d="M6,5 L5.5,4 L6.5,4.5 L7.5,4 L8.5,4.5 L9.5,4 L9,5 L9,5.5 C9,5.77614237 8.7842474,6 8.50461102,6 L6.49538898,6 C6.2217932,6 6,5.76806641 6,5.5 L6,5 Z" id="Rectangle-1669" fill="#D1A43A"></path>
        </g>
    </g>
</svg>

<svg width="23" height="17" viewBox="0 0 23 17" xmlns="http://www.w3.org/2000/svg" xmlns:xlink="http://www.w3.org/1999/xlink"><title>RS</title><defs><linearGradient x1="50%" y1="0%" x2="50%" y2="100%" id="c"><stop stop-color="#FFF" offset="0%"/><stop stop-color="#F0F0F0" offset="100%"/></linearGradient><rect id="a" width="21" height="15" rx="1.5"/><filter x="-50%" y="-50%" width="200%" height="200%" filterUnits="objectBoundingBox" id="b"><feOffset dy=".5" in="SourceAlpha" result="shadowOffsetOuter1"/><feGaussianBlur stdDeviation=".5" in="shadowOffsetOuter1" result="shadowBlurOuter1"/><feColorMatrix values="0 0 0 0 0 0 0 0 0 0 0 0 0 0 0 0 0 0 0.16 0" in="shadowBlurOuter1"/></filter><linearGradient x1="50%" y1="0%" x2="50%" y2="100%" id="g"><stop stop-color="#16508F" offset="0%"/><stop stop-color="#114175" offset="100%"/></linearGradient><path id="f" d="M0 5h21v5H0z"/><filter x="-50%" y="-50%" width="200%" height="200%" filterUnits="objectBoundingBox" id="e"><feMorphology radius=".25" operator="dilate" in="SourceAlpha" result="shadowSpreadOuter1"/><feOffset in="shadowSpreadOuter1" result="shadowOffsetOuter1"/><feColorMatrix values="0 0 0 0 0 0 0 0 0 0 0 0 0 0 0 0 0 0 0.06 0" in="shadowOffsetOuter1"/></filter><linearGradient x1="50%" y1="0%" x2="50%" y2="100%" id="j"><stop stop-color="#E1444D" offset="0%"/><stop stop-color="#C53840" offset="100%"/></linearGradient><path id="i" d="M0 0h21v5H0z"/><filter x="-50%" y="-50%" width="200%" height="200%" filterUnits="objectBoundingBox" id="h"><feMorphology radius=".25" operator="dilate" in="SourceAlpha" result="shadowSpreadOuter1"/><feOffset in="shadowSpreadOuter1" result="shadowOffsetOuter1"/><feColorMatrix values="0 0 0 0 0 0 0 0 0 0 0 0 0 0 0 0 0 0 0.06 0" in="shadowOffsetOuter1"/></filter><path id="l" d="M0 10h21v5H0z"/><filter x="-50%" y="-50%" width="200%" height="200%" filterUnits="objectBoundingBox" id="k"><feMorphology radius=".25" operator="dilate" in="SourceAlpha" result="shadowSpreadOuter1"/><feOffset in="shadowSpreadOuter1" result="shadowOffsetOuter1"/><feColorMatrix values="0 0 0 0 0 0 0 0 0 0 0 0 0 0 0 0 0 0 0.06 0" in="shadowOffsetOuter1"/></filter><path d="M.5 2.5C.5 1.83.87.48.87.48A.67.67 0 0 1 1.5 0h2c.28 0 .56.21.63.48 0 0 .37 1.33.37 2.02 0 .64-.38 2.02-.38 2.02a2.3 2.3 0 0 1-.45.85S3.25 6 2.5 6s-1.17-.63-1.17-.63c-.18-.2-.39-.59-.46-.86 0 0-.37-1.35-.37-2.01z" id="m"/><filter x="-50%" y="-50%" width="200%" height="200%" filterUnits="objectBoundingBox" id="n"><feMorphology radius=".25" operator="dilate" in="SourceAlpha" result="shadowSpreadOuter1"/><feOffset in="shadowSpreadOuter1" result="shadowOffsetOuter1"/><feColorMatrix values="0 0 0 0 0 0 0 0 0 0 0 0 0 0 0 0 0 0 0.06 0" in="shadowOffsetOuter1"/></filter></defs><g fill="none" fill-rule="evenodd"><g transform="translate(1 1)"><mask id="d" fill="#fff"><use xlink:href="#a"/></mask><use fill="#000" filter="url(#b)" xlink:href="#a"/><use fill="url(#c)" xlink:href="#a"/><g mask="url(#d)"><use fill="#000" filter="url(#e)" xlink:href="#f"/><use fill="url(#g)" xlink:href="#f"/></g><g mask="url(#d)"><use fill="#000" filter="url(#h)" xlink:href="#i"/><use fill="url(#j)" xlink:href="#i"/></g><g mask="url(#d)"><use fill="#000" filter="url(#k)" xlink:href="#l"/><use fill="url(#c)" xlink:href="#l"/></g><g mask="url(#d)"><g transform="translate(4 5)"><mask id="o" fill="#fff"><use xlink:href="#m"/></mask><use fill="#000" filter="url(#n)" xlink:href="#m"/><use fill="url(#c)" xlink:href="#m"/><path d="M4.5.5l-4 5" stroke="#C43840" stroke-linecap="square" mask="url(#o)"/><path d="M4.5.5l-4 5" stroke="#C43840" stroke-linecap="square" mask="url(#o)" transform="matrix(-1 0 0 1 5 0)"/></g></g><rect mask="url(#d)" width="21" height="15" rx="1.5"/></g><ellipse fill="#FFF" cx="7.5" cy="8.5" rx=".5" ry="1.5"/><path d="M6 5l-.5-1 1 .5 1-.5 1 .5 1-.5L9 5v.5a.5.5 0 0 1-.5.5h-2a.5.5 0 0 1-.5-.5V5z" fill="#D1A43A"/></g></svg>
